img/comment.svg

<svg width="24" height="16" viewBox="0 0 24 16" fill="none" xmlns="http://www.w3.org/2000/svg">
<path d="M1 6.99976C1 8.42943 2.00073 9.90864 4.01859 11.0857C6.0119 12.2485 8.83152 12.9998 12 12.9998C14.2922 12.9998 16.4006 12.4841 17.2789 12.2359C17.8214 12.0827 18.4235 12.1487 18.929 12.4646L22.3007 14.5712L21.9047 10.6404C21.8366 9.96413 22.1212 9.38498 22.4083 9.00034C22.6398 8.69024 23 8.0472 23 6.99976C23 5.57008 21.9993 4.09087 19.9814 2.91379C17.9881 1.75102 15.1685 0.999756 12 0.999756C8.83152 0.999756 6.0119 1.75102 4.01859 2.91379C2.00073 4.09087 1 5.57008 1 6.99976Z" stroke="black" stroke-width="2"/>
</svg>

<svg width="24" height="16" viewBox="0 0 24 16" fill="none" xmlns="http://www.w3.org/2000/svg"><path d="M1 7c0 1.43 1 2.909 3.019 4.086C6.012 12.248 8.832 13 12 13c2.292 0 4.4-.516 5.279-.764a2.057 2.057 0 011.65.229l3.372 2.106-.396-3.93c-.068-.677.216-1.256.503-1.64C22.64 8.69 23 8.046 23 7c0-1.43-1-2.91-3.019-4.086C17.988 1.75 15.168 1 12 1s-5.988.751-7.981 1.914C2 4.09 1 5.57 1 7z" stroke="#000" stroke-width="2"/></svg>
